X:1
T:Per aspro mar di notte
T:Orlando Lasso
T:Prima parte
T:Per aspro mar di notte
C:Orlando Lasso
Z:Gabriele Fiamma
%%score [ 1 2 3 4 ]
L:1/8
Q:1/4=86
M:2/2
K:C
V:1 alto1 nm="Cantus" snm="C"
V:2 alto nm="Altus" snm="A"
V:3 tenor nm="Tenor" snm="T"
V:4 bass nm="Basso" snm="B"
V:1
 x8 | z2 z2 z2 x2 |[M:4/2][K:treble] z4 A8 G4- | G4 F4 E8 | D8 ^C6 D2 | D2 D2 D6 ^CB, C4 | %6
w: ||Per a-|* spro mar|di not- te in|pic- ciol le- * * *|
 D8 z4 A2 G2 | ^F4 G4 z4 C2 D2 | E4 D4 E2 G4 F2 | E2 E2 A6 ^G^F G4 | A4 E4 ^F2 G4 A2- | %11
w: gno, Sen- za|gui- da, Sen- za|gui- da o go- ver- no|de la vi- * * *|ta, Pre- si nell' e-|
 A2 A2 G2 G2 E2 E2 DE^FG | AB^cd c4 d4 A4 | B4 E4 F4 D4 | E6 F2 G2 G2 F4- | F2 ED E4 F8 | %16
w: * tà ver- de il pri- mo cor- * * *|* * * * * so, Pen-|san- do an- dar in|più tran- quil- la par-|* * * * te,|
 z2 G2 G2 ^F2 G4 z2 A2- | A2 G4 F2 E4 D4 | FEFG A6 ^G2 z2 A2- | A2 F2 D2 G4 E2 G2 F2 | %20
w: Sen- za pro- var l'i-|* ra cru- del de'|ven- * * * * ti, O'l|* fe- ro as- sal- to de le|
 A2 D2 C4 G2 G2 FEDE | F2 G2 F6 E2 D2 D2 | D4 D2 D4 ^CB, C4 | D16- | D16 |] %25
w: tor- bi- d'on- de, O'l fe- * * *|* ro as- sal- to de le|tor- bi- d'on- * * *|de.||
"^Secunda parte" z8 z2 A2 G2 E2 | F2 D2 G4 A6 A2 | D2 d4 ^c2 d8 | z2 D2 ^C2 D2 E2 F2 E4 | %29
w: Non han- no|tan- te a- re- ne in- tor-|no l'on- * de,|Nè tan- te gem- me ha ben|
 E2 G4 F2 E4 E4 | c6 c2 A8 | ^G4 A4 ^F4 =G4 | A4 _B4 GFGA G2 A2 | z4 D4 D6 D2 | D2 D2 ^C4 D8 | %35
w: fio- ri- to le- gno,|Quan- do spi-|ran d'a- pril fe-|con- di ven- * * * * ti,|Quan- ti heb- be af-|fan- ni e do- glie a-|
 ^C4 D4 D8 | E8 z4 D2 D2 | B,2 C4 B,2 C2 c4 A2 | A2 d3 c_BA G2 ^F2 A4 | A2 A2 A2 B2 c2 G2 AGFA | %40
w: lhor la vi-|ta; E pur|non vol- le mai vol- ger|il cor- * * * * so, Per|far pre- sto ri- tor- no in mi- * * *|
 G2 G2 E2 F2 z2 G2 AGFA | G2 A2 F2 G2 z2 B2 cBAc | BAGF E2 F2 G4 G2 G2 | F4 F4 E8 | E16 |] %45
w: * glior par- te, in mi- * * *|* glior par- te, in mi- * * *|* * * * * glior par- te, in|mi- glior par-|te.|
 A6 GF G4 A4 | z8 z2 E2 G2 F2 | E4 E4 F2 A2 G4 | F4 z2 F2 A2 G2 A3 G | F2 G2 F4 E2 G4 F2 | %50
w: Er- * * * rai,|scor- ren- do in|que- sta e'n quel- la par-|te, Ov- un- que vol- *|* se il rio fu- ror del-|
 E8 ^F2 F2 A2 A2 | B2 d2 G6 c3 B A2 | G4 F2 F3 EDCDE D2 | D4 z2 E4 G4 F2- | F2 E2 G4 ^F6 F2 | %55
w: l'on- de, Sfor- zan- do|sem- pre die- tro a * *|mor- te il cor- * * * * * *|so, Men- tre l'ac-|* que d'in- tor- no,e|
 ^F2 G2 A6 ^GF G4 | A4 z2 F2 GGAG G2 G2 | z2 G2 AAAA G2 A2 A2 G2 | A8 ^F4 F2 F2 | %59
w: den- tro al le- * * *|gno, Fa- cea- no hor- ri- bil guer- ra,|Fa- cea- no hor- ri- bil guer- ra al- la mia|vi- ta, E con|
 G2 FE D2 G2 z4 B2 B2 | c2 BA G2 G2 z4 D2 D2 | E2 DC D4 C4 B,2 C2 | CDEF G3 F/E/ D2 B,2 G4 | %63
w: lor con- giu- ra- ti, E con|lor con- giu- ra- ti, E con|lor con- giu- ra- ti e- ra- no i|ven- * * * * * * * ti, ven-|
 ^F16 |]"^Quarta parte" z4 A6 A2 A4 | ^G4 z2 A2 F4 F4 | E4 G4 AGAGAB c2 | B2 G2 G8 A4 | D6 E2 E8 | %69
w: ti.|Ma quel gran|Re, ch'af- fren' il|ma- re e i ven- * * * * * *|ti, e i ven- ti,|Mos- se pie-|
 G4 ^F4 G6 C2 | E2 E2 A6 ^G^F G4 | (3:2:2A4 A2 (3:2:2c4 c2 (3:2:2A4 G2 (3:2:2G4 F2 | F4 F4 D8 | %73
w: to- so i lu- mi in|quel- la par- * * *|te, O- v'e- ra op- pres- sa la mia|stan- ca vi-|
 D4 A4 B4 c4 | d6 A2 c4 F4 | _B2 A2 G4 A2 c2 =B2 A2 | G2 E4 G2 z2 G2 A2 B2 | c2 G4 E2 E4 E2 E2 | %78
w: ta; E con dol-|ci pa- ro- le ac-|que- tò l'on- de, Vol- gen- do il|mio qua- si, Vol- gen- do il|mio qua- si som- mer- so|
 C16 | C4 z2 F4 F2 G4 | A6 G2 GAGG A4 | A4 z2 D2 E4 ^F4 | G3 A B2 d2 cBAA ^G4 | A4 E4 FED^C F4 | %84
w: le-|gno, A mi- glior|strad', a più fe- li- ce cor-|so, A mi- glior|strad', * * a più fe- li- ce cor-|so, a più fe- li- ce cor-|
 E16 |] ^F4 G2 G2 E4 E4 | F4 E4 E2 E2 AGFE | D2 E2 c4 G2 G2 c4 | B4 A6 G4 ^F2 | %89
w: so.|Co- sì quel che m'a-|van- za del mio cor- * * *|* so, Di- fen- da, pre-|go, da ne- mi-|
 G2 A3 G/^F/ G2 c2 A4 G2 | F2 E2 E3 ^FGE A4 ^G2 | A2 d2 ^c2 c2 d4 B4 | E6 F2 D4 F4- | %93
w: ci ven- * * * ti, da ne-|mi- ci ven- * * * * *|ti, Si ch'a que- sti oc- chi ho-|mai sien tol- te|
 F2 ED E4 F4 D4 | z8 z4 z2 _B2 | _B2 B2 A4 ^F2 F2 F4 | G4 z2 G2 G2 G2 F4 | E2 E2 E4 E4 z2 E2 | %98
w: * * * * l'on- de,|E|del suo a- iu- to a me do-|ni, E del suo a- iu-|to a me do- ni tal|
 A8 ^G4 B4 | c4 B4 A4 ^F4 | ^F8 z4 z2 A2 | ^F4 G4 E4 E4 | z2 F3 E F2 G4 G4 | z2 A3 G A2 _B2 A2 A4 | %104
w: par- te, Che'l|mio car- co d'er-|ror sì|fra- gil le- gno,|Pos- sa con- dur- re,|Pos- sa con- dur- re o- v'è,|
 z2 G3 ^F G2 A2 =F2 z2 c2- | c2 A2 B2 c4 d2 c2 A2 | z4 z2 A2 F2 G2 A4 | G2 E2 C2 D2 E2 C2 z4 | %108
w: Pos- sa con- dur- re o-|* v'è l'e- ter- na vi- ta,|o- v'è l'e- ter-|na, o- v'è l'e- ter- na,|
 z2 c2 A2 B2 c4 d2 G2 | F2 E2 A2 A2 A8 | ^F16 |] z8 d8 | ^c4 d4 D6 C2 | C2 C2 C4 C2 D4 ^C2 | %114
w: o- v'è l'e- ter- na, o-|v'è l'e- ter- na vi-|ta.|O|voi, già stan- chi in|que- sta fra- le vi- *|
 D8 z2 B,2 ^F4 | ^F4 A2 A2 ^G4 A4 | F4 E4 c2 B2 A2 GF | E2 DC B,2 ^C2 D4 D4 | z16 | z16 | %120
w: ta, Driz- za-|te al som- mo ben del-|l'al- ma il cor- * * * *|* * * * * * so,|||
 z4 G2 G2 C8 | D6 F2 E8 | E4 z2 D2 D6 D2 | B,4 B,4 z4 B4 | c4 B2 A2 ^G2 A3 G/^F/ G2 | %125
w: Che fa- rà il|mar tran- quil-|lo e quie- ti i|ven- ti, E|vi con- dur- rà se- * * *|
 A4 B4 c4 B2 A2 | ^G2 A3 G/^F/ G2 A4 z2 A2 | D2 E2 F4 E2 E4 ^F2 | G4 A4 G2 F4 ED | %129
w: co, E vi con- dur-|rà se- * * * co in|quel- la par- te, O- ve|nè cuo- ce il sol, * *|
 E2 A2 _B2 A2 DEFD E4 | ^F4 z2 G2 E4 D4 | E2 F2 F4 z4 A4 | G8 F4 E4- | E2 DC D4 E8 | %134
w: * nè ba- gnan l'on- * * * *|de. Si- gnor, il|le- gno è fral, gra-|ve la vi-|* * * * ta,|
 z2 E2 FEFG F2 E4 G2 | ^F2 G3 F/E/ F2 G4 z2 G2 | G2 F2 E4 z2 E2 F2 D2 | ^C2 C2 D4 z2 C2 D4 | %138
w: E pe- ri- glio- so il cor- so in o-|gni par- * * * te; Ma i|ven- ti l'huom, Ma i ven- ti|l'huom fug- gir, fug- gir,|
 z2 ^C2 D4 CDE^F G4 | G4 F4 E8 | ^F4 z2 G2 G2 =F2 E4 | z2 E2 F2 D2 ^C2 C2 D4 | z2 ^C2 D4 z2 C2 D4 | %143
w: fug- gir puo * * * *|te- co,e l'on-|de, Ma i ven- ti l'huom,|Ma i ven- ti l'huom fug- gir,|fug- gir, fug- gir|
 ^C2 C2 D2 D2 E4 D4- | D2 ^CB, C4 D8 | D16- | D16 |] z16 | z16 |] %149
w: può, fug- gir puo te- co,e|* * * * l'on-|de.||||
V:2
 x8 | z2 z2 z2 x2 |[M:4/2][K:treble-8] z8 e8 | d8 c4 B4 | B8 A6 D2 | _B4 A4 A8 | A4 A2 B2 c4 A4- | %7
w: ||Per|a- spro mar|di not- te in|pic- ciol le-|gno, Sen- za gui- da,|
 A4 d2 e2 f4 f4 | z2 g4 G2 G4 A4 | z2 A2 e4 e8 | ^c4 c4 d2 d2 e2 e2 | A3 BcB c2 G3 ABc d2 | %12
w: * Sen- za gui- da|o go- ver- no|de la vi-|ta, Pre- si nell' e- tà|ver- * * * * de il * * * *|
 e2 A2 a4 ^f4 f4 | g4 c4 A4 B4 | c4 c4 d6 c2 | c8 c6 d2 | d2 ^c2 d6 d2 f2 e2 | d4 z2 d4 c4 B2 | %18
w: pri- mo cor- so, Pen-|san- do an- dar in|più tran- quil- la|par- te, Sen-|za pro- var, Sen- za pro-|var l'i- ra cru-|
 A2 A2 ABcd e2 e2 z2 e2 | f2 a2 g2 d2 z2 g2 e2 c2 | f8 e2 e2 c2 A2 | d8 c4 _B4- | B2 _B2 B2 G2 A8 | %23
w: del de' ven- * * * * ti, O'l|fe- ro as- sal- to, O'l fe- ro as-|sal- to, O'l fe- ro as-|sal- to de|* le tor- bi- d'on-|
 A4 _B2 B2 A2 A2 B4 | A16 |] z8 A4 B2 c2 | d2 f2 e4 f4 f4- | f2 g2 e4 d8 | z2 f2 e2 f2 c4 c2 g2- | %29
w: de, de le tor- bi- d'on-|de.|Non han- no|tan- te a- re- ne in- tor-|* no l'on- de,|Nè tan- te gem- me ha ben|
 g2 e2 d2 d2 B6 B2 | e6 e2 f2 e3 d/c/ d2 | e4 ^c4 d8 | f6 f2 edef e2 f2 | z4 _B4 B2 B2 B2 B2 | %34
w: * fio- ri- to le- gno,|Quan- do spi- ran * * *|d'a- pril fe-|con- di ven- * * * * ti,|Quan- ti heb- be af- fan- ni e|
 A6 A4 GF G4 | A4 _B4 A8 | c8 z4 A4 | d2 e2 d2 d2 G4 c4 | A2 A2 d3 c _B2 A2 e4 | %39
w: do- glie a- * * *|lhor la vi-|ta; E|pur non vol- le mai vol-|ger il cor- * * so, Per|
 e2 e2 ^f2 g2 g2 e2 =fedf | e2 d2 c4 d2 e2 fedf | e2 e2 d4 e2 g2 agfa | g2 d2 z2 c2 dcBd c2 e2 | %43
w: far pre- sto ri- tor- no in mi- * * *|* glior par- te, in mi- * * *|* glior par- te, in mi- * * *|* glior, in mi- * * * * glior|
 d2 A2 A2 d4 c2 B4 | ^c16 |] z8 e6 dc | d4 e4 z2 A2 e2 d2 | g4 c4 c2 f2 d4 | d4 d4 f2 e2 f2 d2 | %49
w: par- te, in mi- glior par-|te.|Er- * *|* rai, scor- ren- do in|que- sta e'n quel- la par-|te, Ov- un- que vol- se il|
 c6 d2 g3 f e2 d2- | d2 ^cB c4 d4 d4 | z2 B2 d2 d2 e2 g2 c2 d2 | _e4 d4 cBAG A4 | B4 z2 c4 B2 d4 | %54
w: rio fu- ror * * del-|* * * * l'on- de,|Sfor- zan- do sem- pre die- tro a|mor- te il cor- * * * *|so, Men- tre l'ac-|
 c6 B2 A4 A4 | B4 e4 e8 | ^c4 z2 d2 eeee d2 e2 | z2 d2 ffff e2 f3 e d2 | c2 f2 e4 d4 d2 d2 | %59
w: que d'in- tor- no,e|den- tro al le-|gno, Fa- cea- no hor- ri- bil guer- ra,|Fa- cea- no hor- ri- bil guer- ra al- * *|la mia vi- ta, E con|
 e2 dc d2 d2 z4 d2 d2 | e2 dc d2 d2 z4 B2 B2 | c2 BA G4 G4 G2 G2 | ABcd e2 c2 z2 GABc d2 | d16 |] %64
w: lor con- giu- ra- ti, E con|lor con- giu- ra- ti, E con|lor con- giu- ra- ti e- ra- no i|ven- * * * * ti, ven- * * * *|ti.|
 z4 e4 f4 f4 | e4 z2 e2 d4 d4 | g4 e4 z8 | d4 edede^f g2 !courtesy!^f4 | z4 g6 c2 c4 | %69
w: Ma quel gran|Re, ch'af- fren' il|ma- re|e i ven- * * * * * * ti,|Mos- se pie-|
 d6 d2 d4 e4 | ^c4 d4 e8 | (3:2:2e4 f2 (3:2:2g4 g2 (3:2:2f4 d2 (3:2:2e4 d2 | d4 c2 c4 _BA B4 | %73
w: to- so i lu- mi in|quel- la par-|te, O- v'e- ra op- pres- sa la mia|stan- ca vi- * * *|
 A4 z2 d4 e4 f2- | f2 g2 f4 e2 f2 d2 d2- | de f3 e/d/ e2 c4 d4 | z2 B2 c2 d2 e4 d4 | %77
w: ta; E con dol-|* ci pa- ro- le ac- que- tò|* * * * * * l'on- de,|Vol- gen- do il mio qua-|
 c2 e2 d2 c2 B2 c4 c2 | A4 A6 A2 G4 | A4 z2 c2 d4 e4 | f6 e2 dddd e4 | ^f4 z2 g4 G2 A4 | %82
w: si, Vol- gen- do il mio qua- si|som- mer- so le-|gno, A mi- glior|strad', a più fe- li- ce cor-|so, A mi- glior|
 B2 d4 f2 e2 ed e4 | ^c6 c2 defe d4 | ^c16 |]"^Quinta parte" d4 B2 B2 c4 B4 | d4 c4 B4 c2 de | %87
w: strad', a più fe- li- ce cor-|so, a più fe- li- ce cor-|so.|Co- sì quel che m'a-|van- za del mio cor- *|
 fg a2 A2 e2 e2 c2 e4 | d4 z2 d2 c2 B4 A2 | e4 e2 e4 d2 c3 G | AB c4 B2 e4 e4 | z2 f2 e2 e2 A4 d4 | %92
w: * * * so, Di- fen- da, pre-|go, da ne- mi- ci|ven- ti, da ne- mi- *|* * * ci ven- ti,|Si ch'a que- sti oc- chi ho-|
 c4 c4 _B4 c4 | c8 d4 z2 f2 | f2 f2 e4 e4 d4- | d2 d2 ^c2 c2 d4 d4 | B4 B2 B2 e4 d2 d2 | %97
w: mai sien tol- te|l'on- de, E|del suo a- iu- to a me|* do- ni tal par- te,|E del suo a- iu- to a me|
 c4 B4 z2 A2 e4- | e2 dc d4 e6 B2 | e4 e6 e2 d4 | ^c8 e8 | d6 d2 ^c4 c4 | z8 z2 e3 d e2 | %103
w: do- ni tal par-|* * * * te, Che'l|mio car- co d'er-|ror sì|fra- gil le- gno,|Pos- sa con-|
 f4 c4 z2 f3 e f2 | g2 e2 z2 e2 c4 d2 e2- | e2 c2 d2 G2 z2 g2 e2 ^f2 | g4 f4 z2 e2 c2 d2 | %107
w: dur- re, Pos- sa con-|dur- re o- v'è l'e- ter-|* na vi- ta, o- v'è l'e-|ter- na, o- v'è l'e-|
 e2 g2 fe g4 fe d4 | c4 z2 g2 e2 f4 d2- | d2 c4 d4 ^cB c4 | d16 |] z8 f8 | e4 A4 _B6 A2 | %113
w: ter- na vi- * * * * *|ta, o- v'è l'e- ter-|* na vi- * * *|ta.|O|voi, già stan- chi in|
 G4 A2 A4 !courtesy!=B2 A4 | B8 z2 G2 A4 | d4 c2 c2 B4 e4 | d4 B4 e6 d2 | c2 BA G4 A4 z2 _B2 | %118
w: que- sta fra- le vi-|ta, Driz- za-|te al som- mo ben del-|l'al- ma il cor- *|* * * * so, Vol-|
 A4 c4 d6 c2 | f4 z2 d2 gfedcBAB | c2 c2 _B4 A4 z2 f2 | f2 F4 c4 c2 c4 | c4 z2 B2 B6 A2 | %123
w: gen- do al cen- no|suo la ve- * * * * * * *|* la e'l le- gno, Che|fa- rà il mar tran- quil-|lo e quie- ti i|
 G4 G4 z4 g4 | g6 f2 e2 d2 e4 | e4 g4 g6 f2 | e2 d2 e4 e4 f4- | f2 e2 d4 ^c4 c4 | %128
w: ven- ti, E|vi con- dur- rà se-|co, E vi con-|dur- rà se- co in quel-|* la par- te, O-|
 d2 e2 f4 e2 d4 ^cB | ^c2 d2 d2 f4 d3 c/B/ c2 | d2 d2 B4 z2 c2 A2 B2 | c2 d2 c4 z4 f4 | e4 d8 c4- | %133
w: ve nè cuo- ce il sol, * *|* nè ba- gnan l'on- * * *|de. Si- gnor, Si- gnor, il|le- gno è fral, gra-|ve la vi-|
 c4 B2 A2 c4 B4 | z2 c2 cBcc d2 c2 c2 B2 | d8 e4 z2 e2 | e2 d2 B4 z2 c2 c2 _B2 | %137
w: * * * * ta,|E pe- ri- glio- so il cor- so in o- gni|par- te; Ma i|ven- ti l'huom, Ma i ven- ti|
 A2 A2 G4 z2 A2 G4 | z2 A2 G4 A2 ^c2 d2 d2 | e2 e2 d6 ^cB c4 | d4 z2 B2 e2 d2 B4 | %141
w: l'huom fug- gir, fug- gir,|fug- gir può, fug- gir puo|te- co,e l'on- * * *|de, Ma i ven- ti l'huom,|
 z2 c2 c2 _B2 A2 A2 G4 | z2 A2 G4 z2 A2 G4 | A2 A2 B2 B2 c4 A4 | A8 A4 z2 _B2 | A2 _B2 A2 A2 B8 | %146
w: Ma i ven- ti l'huom fug- gir,|fug- gir, fug- gir|può, fug- gir puo te- co,e|l'on- de, fug-|gir puo te- co,e l'on-|
 A16 |] z16 | z16 |] %149
w: de.|||
V:3
 x8 | z2 z2 z2 x2 |[M:4/2][K:treble-8] z4 c8 B4- | B4 A4 G8- | G4 ^F4 F6 A2 | G4 F4 E8 | %6
w: ||Per a-|* spro mar|* di not- te in|pic- ciol le-|
 ^F4 F2 G2 A4 D4 | d2 c2 B4 A4 A2 B2 | c4 B2 B2 c2 B2 d2 d2 | c6 BA B8 | e4 z2 A4 B2 c4 | %11
w: gno, Sen- za gui- da,|Sen- za gui- da, Sen- za|gui- da o go- ver- no de la|vi- * * *|ta, Pre- si nell'|
 c2 d2 e2 e2 c2 B2 z2 AB | ^cdef e4 A4 z2 d2- | d2 e4 c4 d4 G2- | G2 G2 A4 _B6 A2 | G8 A8 | %16
w: e- tà ver- de il pri- mo cor- *|* * * * * so, Pen-|* san- do an- dar in|* più tran- quil- la|par- te,|
 z2 G2 _B2 A2 G4 c4- | c2 _B2 A4 G8 | z2 d2 cBAB c2 B2 z2 c2 | c2 d2 B4 B2 c4 A2 | %20
w: Sen- za pro- var l'i-|* ra cru- del|de' ven- * * * * ti, O'l|fe- ro as- sal- to, O'l fe-|
 F2 _B4 A2 z2 c2 A2 F2 | _B6 A2 A4 F4 | G6 D2 E8 | ^F2 F2 G2 G4 F2 G4 | ^F16 |] %25
w: ro as- sal- to, O'l fe- ro as-|sal- to de le|tor- bi- d'on-|de, de le tor- bi- d'on-|de.|
 z2 A2 G2 E2 F2 D2 G4 | A4 c8 d4 | _B4 A4 z2 !courtesy!_B2 A2 B2 | F2 D2 A8 G4 | %29
w: Non han- no tan- te a- re-|ne in- tor- no|l'on- de, Nè tan- te|gem- me ha ben fio-|
 c4 _B2 A4 ^G^F G4 | A4 c6 c2 A4 | B4 e4 A4 B4 | c4 d4 c4 c4 | z4 F4 F6 F2 | F2 F2 E4 D6 D2 | %35
w: ri- to le- * * *|gno, Quan- do spi-|ran d'a- pril fe-|con- di ven- ti,|Quan- ti heb- be af-|fan- ni e do- glie a- lhor|
 E4 G6 FE F4 | G4 A2 A2 ^F2 G4 F2 | G4 G4 E2 E2 AGFE | F6 G2 d6 ^c2 | ^c2 c2 d4 e2 =c2 z4 | %40
w: la vi- * * *|ta; E pur non vol- le|mai vol- ger il cor- * * *|* so, Per far|pre- sto ri- tor- no|
 z2 B2 cBAc B2 B2 d2 A2 | z2 c2 dc_Bd c2 d2 f2 c2 | z2 B2 cBAcBcdBedcB | A2 d3 cBA ^G2 A4 G2 | %44
w: in mi- * * * * glior par- te,|in mi- * * * * glior par- te,|in mi- * * * * * * * * * * *|* glior * * * * par- *|
 A16 |] z8 z4 c4- | c2 BA B4 c6 A2 | c2 B2 A2 G2 A2 d2 G4 | _B8 z4 z2 F2 | %49
w: te.|Er-|* * * * rai, scor-|ren- do in que- sta e'n quel- la par-|te, Ov-|
 A2 G2 A2 B2 c2 d2 c2 A2 | A8 A8 | z2 G2 B2 B2 c2 e2 A2 A2 | _B8 A2 DEFE ^F2 | G8 G4 B2 A2- | %54
w: un- que vol- se il rio fu- ror del-|l'on- de,|Sfor- zan- do sem- pre die- tro a|mor- te il cor- * * * *|so, Men- tre l'ac-|
 A2 c2 e2 d4 d2 d4- | d4 c4 B8 | A4 z2 A2 cccc B2 c2 | z2 B2 ccdc c2 c2 d4 | e2 d3 ^c/B/ c2 A8 | %59
w: * que d'in- tor- no,e den-|* tro al le-|gno, Fa- cea- no hor- ri- bil guer- ra,|Fa- cea- no hor- ri- bil guer- ra al- la|mia vi- * * * ta,|
 z4 B2 B2 c2 BA G2 G2 | z4 B2 B2 c2 BA G2 G2 | z4 D2 D2 E2 DC D2 E2 | F2 G2 G3 ABc d3 c B2 | A16 |] %64
w: E con lor con- giu- ra- ti,|E con lor con- giu- ra- ti,|E con lor con- giu- ra- ti e-|ra- no i ven- * * * * * *|ti.|
 z4 c6 c2 d4 | B4 z2 c2 _B6 A2 | c8 c8 | z2 B2 cBcBcd e2 d4 | B6 c2 G8 | _B4 A4 G4 G4 | A6 A2 B8 | %71
w: Ma quel gran|Re, ch'af- fren' il|ma- re|e i ven- * * * * * * ti,|Mos- se pie-|to- so i lu- mi in|quel- la par-|
 (3:2:2^c4 d2 (3:2:2e4 =c2 (3:2:2c4 B2 (3:2:2c4 A2 | _B4 A4 G8 | ^F4 F4 G4 A4 | _B6 d2 A4 B4 | %75
w: te, O- v'e- ra op- pres- sa la mia|stan- ca vi-|ta; E con dol-|ci pa- ro- le ac-|
 G2 F2 c4 F4 z4 | z2 G2 A2 B2 c4 z4 | z2 c2 B2 A2 G2 G4 A2 | E4 F4 E2 F4 E2 | F4 z2 A2 _B2 A2 c4- | %80
w: que- tò l'on- de,|Vol- gen- do il mio,|Vol- gen- do il mio qua- si|som- mer- so le- *|gno, A mi- glior strad',|
 c4 c4 BABd ^c4 | d4 z2 B2 c2 B2 d4 | dcBA G2 A3 BcA B4 | A2 E2 AAAA A8 | A16 |] A4 d4 G2 A4 ^G2 | %86
w: * a più fe- li- ce cor-|so, A mi- glior strad',|a * * * * più fe- li- ce cor-|so, a più fe- li- ce cor-|so.|Co- sì quel che m'a-|
 A2 A2 A4 E4 z2 A2- | ABcd e2 A2 z2 E2 G2 G2 | G4 D4 z4 d4- | d2 c2 B2 B2 A2 D2 z4 | %90
w: van- za del mio cor-|* * * * * so, Di- fen- da,|pre- go, da|* ne- mi- ci ven- ti,|
 z2 A4 G2 c2 c2 B4 | A6 A2 ^F2 F2 G4- | G2 G2 A2 F2 F2 G2 A4 | G8 z2 _B2 B2 B2 | A4 A4 G6 F2 | %95
w: da ne- mi- ci ven-|ti, Si ch'a que- sti oc-|* chi ho- mai sien tol- te l'on-|de, E del suo a-|iu- to a me do-|
 G2 G2 E4 D8 | z2 d2 d2 d2 c4 A4- | A2 A2 G4 c6 B2 | A8 B4 ^G4 | A4 B4 c4 B4- | B4 A4 ^G4 A4- | %101
w: ni tal par- te,|E del suo a- iu- to a|* me do- ni tal|par- te, Che'l|mio car- co d'er-|* ror sì fra-|
 A2 A2 _B4 A8- | A8 z2 c3 B c2 | d2 c2 z4 z2 d3 ^c d2 | eB c2 B4 z2 A2 F2 G2 | A4 G2 E4 D2 z2 d2 | %106
w: * gil le- gno,|* Pos- sa con-|dur- re, Pos- sa con-|dur- * * re o- v'è l'e-|ter- na vi- ta, o-|
 B2 ^c2 d2 =c2 z2 c4 A2 | B2 c4 G2 z2 A2 F2 G2 | A2 e2 d4 c2 A2 F2 G2 | A4 F4 E8 | D16 |] _B12 A4 | %112
w: v'è l'e- ter- na, o- v'è|l'e- ter- na, o- v'è l'e-|ter- na vi- ta, o- v'è l'e-|ter- na vi-|ta.|O voi,|
 A4 F6 F2 F4 | E2 E4 F2 E8 | G4 z2 G2 d4 d4 | A2 A2 e8 A4 | A4 ^G4 A2 B2 c2 BA | G8 ^F4 z2 G2 | %118
w: già stan- chi in que-|sta fra- le vi-|ta, Driz- za- te al|som- mo ben del-|l'al- ma il cor- * * * *|* so, Vol-|
 ^F4 G2 A4 _B2 A2 A2- | A2 d3 cBA B2 c2 edcB | AG F3 E/D/ E2 F4 A2 A2 | _B4 B2 A2 G8 | %122
w: gen- do al cen- no suo la|* ve- * * * * la e'l le- * * *|* * * * * * gno, Che fa-|rà il mar tran- quil-|
 G4 z2 G2 G6 D2 | D4 D4 z4 d4 | e2 e2 d3 c B2 A2 B4 | ^c4 d4 e2 e2 d3 =c | B2 A2 B4 ^c4 d2 d2 | %127
w: lo e quie- ti i|ven- ti, E|vi con- dur- * * rà se-|co, E vi con- dur- rà|se- * * co in quel- la|
 A8 A4 A4 | B2 c2 FGAB c2 d2 A4- | A2 ^F2 G2 D2 _B4 A4- | A2 A2 d4 G4 ^F2 F2 | G2 _B2 A4 z4 c4- | %132
w: par- te, O-|ve nè cuo- * * * * ce il sol,|* nè ba- gnan l'on- de.|* Si- gnor, Si- gnor, il|le- gno è fral, gra-|
 c4 _B4 A8 | A12 ^G4 | z2 A2 FGAG A4 G4 | A2 _B2 A4 c4 z2 =B2 | c2 A2 ^G4 z2 A2 A2 =G2 | %137
w: * ve la|vi- ta,|E pe- ri- glio- so il cor- so in|o- gni par- te; Ma i|ven- ti l'huom, Ma i ven- ti|
 E4 z2 D2 E4 z2 D2 | E4 z2 D2 E2 A2 B2 B2 | c4 A4 A8 | A4 z2 G2 c2 A2 ^G4 | z2 A2 A2 G2 E4 z2 D2 | %142
w: l'huom fug- gir, fug-|gir, fug- gir, fug- gir puo|te- co,e l'on-|de, Ma i ven- ti l'huom,|Ma i ven- ti l'huom fug-|
 E4 z2 D2 E4 z2 D2 | E2 E2 G8 F4 | E8 ^F2 F2 G4 | ^F2 G4 F2 G8 | ^F16 |] z16 | z16 |] %149
w: gir, fug- gir, fug-|gir puo te- co,e|l'on- de, fug- gir|puo te- co,e l'on-|de.|||
V:4
 x8 | z2 z2 z2 x2 |[M:4/2] F,8 E,6 D,C, | B,,4 D,4 E,8 | z4 B,,4 ^F,,4 F,,4 | G,,4 D,4 A,,8 | %6
w: ||Per a- * *|* spro mar|di not- te in|pic- ciol le-|
 D,8 z4 F,2 E,2 | D,4 G,,4 D,2 E,2 F,4 | C,2 C,2 G,4 E,4 D,2 D,2 | A,6 G,F, E,8 | %10
w: gno, Sen- za|gui- da Sen- za gui-|da o go- ver- no de la|vi- * * *|
 A,,4 A,4 D,2 G,2 C,2 A,,2 | F,4 E,2 C,3 D,E,F, G,2 D,2 | A,,8 D,8 | G,4 A,4 F,4 G,4 | %14
w: ta, Pre- si nell' e- tà|ver- de il pri- * * * * mo|cor- so,|Pen- san- do an- dar|
 C,4 A,,4 G,,4 _B,,2 F,,2 | C,8 F,6 D,2 | F,2 E,2 D,4 _B,4 A,4 | D,8 G,,4 G,,4 | %18
w: in più tran- quil- la|par- te, Sen-|za pro- var l'i- ra|cru- del de'|
 D,^C,D,E, F,4 E,4 z2 A,2 | F,2 D,2 G,3 F, E,2 C,2 z2 F,2 | D,2 _B,,2 F,4 C,4 z2 D,2 | %21
w: ven- * * * * ti, O'l|fe- ro as- sal- * * to, O'l|fe- ro as- sal- to, O'l|
 _B,,2 G,,2 D,4 A,,4 B,,4 | G,,2 G,,4 _B,,2 A,,8 | D,4 G,,2 G,,2 D,2 D,2 G,,4 | D,16 |] %25
w: fe- ro as- sal- to de|le tor- bi- d'on-|de, de le tor- bi- d'on-|de.|
 A,,4 B,,2 C,2 D,2 F,2 E,4 | D,4 C,2 C,2 F,4 D,4 | z8 z2 G,2 ^F,2 G,2 | A,6 D,2 A,,2 F,,2 C,4- | %29
w: Non han- no tan- te a- re-|ne in- tor- no l'on- de,|Nè tan- te|gem- me ha ben fio- ri-|
 C,4 D,4 E,8 | A,,4 A,6 A,2 F,4 | E,4 A,,4 D,4 G,4 | F,4 _B,,4 C,6 F,,2 | %33
w: * to le-|gno, Quan- do spi-|ran d'a- pril fe-|con- di ven- ti,|
 z4 _B,,4 B,,2 B,,2 B,,2 D,2 | A,,8 _B,,8 | A,,4 G,,4 D,8 | C,4 A,,4 D,2 E,2 D,2 D,2 | %37
w: Quan- ti heb- be af- fan- ni e|do- glie a-|lhor la vi-|ta; E pur non vol- le|
 G,,8 C,4 A,,2 A,,2 | D,3 C,_B,,A,, G,,4 D,2 A,,4 | A,,2 A,,2 D,2 G,,2 C,2 C,2 z4 | %40
w: mai vol- ger il|cor- * * * * so, Per|far pre- sto ri- tor- no|
 z2 G,2 A,G,F,A, G,2 E,2 D,2 D,2 | z2 A,2 _B,A,G,B, A,2 G,2 F,2 F,2 | z2 G,2 A,G,F,A, G,4 C,4 | %43
w: in mi- * * * * glior par- te,|in mi- * * * * glior par- te,|in mi- * * * * glior|
 D,8 E,8 | A,,16 |] z8 z4 A,4- | A,2 G,F, G,4 A,4 z2 D,2 | C,2 E,2 A,,2 C,2 F,2 D,2 _B,4 | %48
w: par- *|te.|Er-|* * * * rai, scor-|ren- do in que- sta e'n quel- la par-|
 _B,,8 z4 D,4 | F,2 E,2 F,2 D,2 C,2 B,,2 C,2 D,2 | A,,8 D,2 D,2 ^F,2 F,2 | G,6 G,2 C,4 F,4 | %52
w: te, Ov-|un- que vol- se il rio fu- ror del-|l'on- de, Sfor- zan- do|sem- pre die- tro a|
 _E,4 _B,,4 F,3 =E,D,^C, D,2 | G,,4 z2 C,4 E,2 D,4 | F,2 A,2 G,4 D,8 | B,,4 A,,4 E,8 | %56
w: mor- te il cor- * * * *|so, Men- tre l'ac-|que d'in- tor- no,e|den- tro al le-|
 A,,4 z2 D,2 C,C,A,,C, G,,2 C,2 | z2 G,2 F,F,D,F, C,2 F,2 D,2 _B,2 | A,8 D,8 | %59
w: gno, Fa- cea- no hor- ri- bil guer- ra,|Fa- cea- no hor- ri- bil guer- ra al- la mia|vi- ta,|
 z4 G,2 G,2 A,2 G,F, G,2 G,,2 | z4 G,2 G,2 A,2 G,F, G,2 G,,2 | z4 B,,2 B,,2 C,2 B,,A,, G,,2 C,2 | %62
w: E con lor con- giu- ra- ti,|E con lor con- giu- ra- ti,|E con lor con- giu- ra- ti e-|
 F,,2 C,2 C,D,E,F, G,8 | D,16 |] A,8 F,4 D,4 | E,4 z2 A,,2 _B,,6 D,2 | C,6 E,2 F,E,F,E,F,G, A,2 | %67
w: ra- no i ven- * * * *|ti.|Ma quel gran|Re, ch'af- fren' il|ma- re e i ven- * * * * * *|
 G,4 z4 z8 | G,6 C,2 C,8 | G,,4 D,4 B,,4 C,4 | A,,4 F,4 E,8 | %71
w: ti,|Mos- se pie-|to- so i lu- mi in|quel- la par-|
 (3:2:2A,4 D,2 (3:2:2C,4 E,2 (3:2:2F,4 G,2 (3:2:2C,4 D,2 | _B,,4 F,,4 G,,8 | D,8 z8 | z16 | %75
w: te, O- v'e- ra op- pres- sa la mia|stan- ca vi-|ta;||
 z8 z2 A,2 G,2 F,2 | E,4 z4 z2 E,2 F,2 G,2 | A,2 E,2 G,2 A,2 E,2 C,4 A,,2 | %78
w: Vol- gen- do il|mio, Vol- gen- do il|mio, Vol- gen- do il mio qua- si|
 A,,4 F,,2 F,,2 A,,3 B,, C,4 | F,,4 F,4 D,4 C,4 | F,6 C,2 G,^F,G,_B, A,4 | D,4 G,4 E,4 D,4 | %82
w: som- mer- so le- * *|gno, A mi- glior|strad', a più fe- li- ce cor-|so, A mi- glior|
 G,6 D,2 A,^G,A,F, E,4 | A,,4 A,,4 D,^C,D,A,, D,4 | A,,16 |] D,4 G,,2 G,,2 C,2 A,,2 E,4 | %86
w: strad', a più fe- li- ce cor-|so, a più fe- li- ce cor-|so.|Co- sì quel che m'a- van-|
 D,4 z2 A,4 G,2 F,E,D,^C, | D,2 A,,2 z2 A,,2 C,2 C,2 C,4 | G,,2 G,4 F,2 E,2 E,2 D,4 | %89
w: za del mio cor- * * *|* so, Di- fen- da, pre-|go, da ne- mi- ci ven-|
 E,8 z2 F,4 E,2 | D,2 A,,2 E,4 C,3 D, E,4 | z2 D,2 A,,2 A,,2 D,4 G,,4 | C,4 A,,4 _B,,4 F,,4 | %93
w: ti, da ne-|mi- ci ven- ti, * *|Si ch'a que- sti oc- chi ho-|mai sien tol- te|
 C,8 _B,,8 | z4 z2 C,2 C,2 C,2 _B,,4 | G,,4 A,,4 z2 A,2 A,2 A,2 | G,4 G,4 C,4 D,4 | %97
w: l'on- de,|E del suo a- iu-|to a me, E del suo a-|iu- to a me do-|
 A,,4 E,4 A,6 G,2 | F,8 E,4 E,4 | A,,4 ^G,,4 A,,4 B,,4 | ^F,8 ^C,8 | D,4 G,,4 A,,4 A,,4 | %102
w: ni, do- ni tal|par- te, Che'l|mio car- co d'er-|ror sì|fra- gil le- gno,|
 z2 D,3 ^C, D,2 E,2 =C,2 z4 | z2 F,3 E, F,2 G,2 D,2 z4 | z2 E,3 D, E,2 F,3 E, D,2 C,2 | %105
w: Pos- sa con- dur- re,|Pos- sa con- dur- re,|Pos- sa con- dur- * * re|
 z4 z2 C,2 A,,2 B,,2 C,2 D,2 | E,4 D,2 F,2 D,2 E,2 F,4 | E,2 C,2 A,,2 B,,2 C,2 A,,2 _B,,4 | %108
w: o- v'è l'e- ter- na|vi- ta. o- v'è l'e- ter-|na, o- v'è l'e- ter- na vi-|
 A,,2 A,,2 F,,2 G,,2 A,,4 _B,,4 | A,,16 | D,16 |] z8 D,8 | A,,4 D,4 _B,,6 F,,2 | %113
w: ta, o- v'è l'e- ter- na|vi-|ta.|O|voi, già stan- chi in|
 C,4 A,,2 A,,4 ^G,,2 A,,4 | G,,8 z2 G,,2 D,4 | D,4 A,,2 A,,2 E,4 ^C,4 | %116
w: que- sta fra- le vi-|ta, Driz- za-|te al som- mo ben del-|
 D,4 E,4 A,,2 ^G,,2 A,,2 B,,2 | C,2 D,2 E,4 D,4 z2 G,,2 | D,4 E,2 F,4 G,2 F,4 | %119
w: l'al- ma il cor- * * *|* * * so, Vol-|gen- do al cen- no suo|
 D,4 G,3 F,E,D,C,B,, A,,3 G,, | F,,2 A,,2 G,,4 F,,4 F,2 F,2 | _B,,4 B,,2 F,,2 C,8 | %122
w: la ve- * * * * * * *|* la e'l le- gno, Che fa-|rà il mar tran- quil-|
 C,4 z2 G,,2 G,,6 ^F,,2 | G,,4 G,,4 z4 G,,4 | C,D,E,F, G,2 D,2 E,2 F,2 E,4 | %125
w: lo e quie- ti i|ven- ti, E|vi * * * * con- dur- rà se-|
 A,,4 G,,4 C,D,E,F, G,2 D,2 | E,2 F,2 E,4 A,4 D,4- | D,2 ^C,2 D,4 A,,8 | z16 | z8 z4 z2 A,,2 | %130
w: co, E vi * * * * con-|dur- rà se- co in quel-|* la par- te,||Si-|
 D,4 z2 G,,2 C,4 D,4 | C,2 _B,,2 F,4 F,,8 | G,,8 A,,8 | F,8 E,8 | %134
w: gnor, Si- gnor, il|le- gno è fral, gra-|ve la|vi- ta,|
 z2 A,,2 A,G,F,E, D,2 A,,2 C,2 E,2 | D,8 C,4 z2 E,2 | C,2 D,2 E,4 z2 A,,2 F,,2 G,,2 | %137
w: E pe- ri- glio- so il cor- so in o- gni|par- te; Ma i|ven- ti l'huom, Ma i ven- ti|
 A,,4 z2 _B,,2 A,,4 z2 B,,2 | A,,4 z2 _B,,2 A,,4 G,,4 | C,4 D,4 A,,8 | D,4 z2 E,2 C,2 D,2 E,4 | %141
w: l'huom fug- gir, fug-|gir, fug- gir puo|te- co,e l'on-|de, Ma i ven- ti l'huom,|
 z2 A,,2 F,,2 G,,2 A,,4 z2 _B,,2 | A,,4 z2 _B,,2 A,,4 z2 B,,2 | A,,4 G,,4 C,4 D,4 | %144
w: Ma i ven- ti l'huom fug-|gir, fug- gir, fug-|gir puo te- co,e|
 A,,8 D,4 z2 G,,2 | D,2 G,,2 D,2 D,2 G,,8 | D,16 |] z16 | z16 |] %149
w: l'on- de, fug-|gir puo te- co,e l'on-|de.|||

